svgs/thin/arrows-down-to-people.svg

<svg xmlns="http://www.w3.org/2000/svg" viewBox="0 0 640 512"><!--! Font Awesome Pro 6.4.0 by @fontawesome - https://fontawesome.com License - https://fontawesome.com/license (Commercial License) Copyright 2023 Fonticons, Inc. --><path d="M136 8c0-4.4 3.6-8 8-8s8 3.6 8 8V164.7l50.3-50.3c3.1-3.1 8.2-3.1 11.3 0s3.1 8.2 0 11.3l-64 64c-3.1 3.1-8.2 3.1-11.3 0l-64-64c-3.1-3.1-3.1-8.2 0-11.3s8.2-3.1 11.3 0L136 164.7V8zM426.3 114.3c3.1-3.1 8.2-3.1 11.3 0L488 164.7V8c0-4.4 3.6-8 8-8s8 3.6 8 8V164.7l50.3-50.3c3.1-3.1 8.2-3.1 11.3 0s3.1 8.2 0 11.3l-64 64c-3.1 3.1-8.2 3.1-11.3 0l-64-64c-3.1-3.1-3.1-8.2 0-11.3zM496 320a24 24 0 1 0 0-48 24 24 0 1 0 0 48zm0-64a40 40 0 1 1 0 80 40 40 0 1 1 0-80zm-5.1 112c-32.5 0-62.4 17.9-77.6 46.6l-28 52.6c-2.7 5.1-.7 11.5 4.5 14.1c4.8 2.4 10.7 .7 13.5-3.9l39.3-65.4c1.9-3.1 5.5-4.6 9-3.6s5.9 4.1 5.9 7.7v64c0 8.8 7.2 16 16 16h48c8.8 0 16-7.2 16-16l0-64c0-3.6 2.4-6.7 5.9-7.7s7.1 .5 9 3.6l39.3 65.4c2.8 4.6 8.6 6.3 13.5 3.9c5.2-2.6 7.2-9 4.5-14.1l-28-52.6c-15.3-28.7-45.1-46.6-77.6-46.6H490.9zm-91.8 39.1c18.1-33.9 53.4-55.1 91.8-55.1h12.8c38.4 0 73.7 21.2 91.8 55.1l28 52.6c7 13.1 1.8 29.3-11.5 35.9c-12.3 6.2-27.3 1.8-34.3-10l-24.4-40.7 0 35.1c0 17.7-14.3 32-32 32h-48c-17.7 0-32-14.3-32-32V444.9l-24.4 40.7c-7.1 11.8-22 16.2-34.3 10c-13.2-6.6-18.4-22.9-11.5-35.9l28-52.6zM168 296a24 24 0 1 0 -48 0 24 24 0 1 0 48 0zm-64 0a40 40 0 1 1 80 0 40 40 0 1 1 -80 0zM61.3 414.6l-28 52.6c-2.7 5.1-.7 11.5 4.5 14.1c4.8 2.4 10.7 .7 13.5-3.9l39.3-65.4c1.8-3.1 5.5-4.6 9-3.6s5.9 4.1 5.9 7.7v64c0 8.8 7.2 16 16 16h48c8.8 0 16-7.2 16-16l0-64c0-3.6 2.4-6.7 5.9-7.7s7.1 .5 9 3.6l39.3 65.4c2.8 4.6 8.6 6.3 13.5 3.9c5.2-2.6 7.2-9 4.5-14.1l-28-52.6c-15.3-28.7-45.1-46.6-77.6-46.6H138.9c-32.5 0-62.4 17.9-77.6 46.6zM138.9 352h12.8c38.4 0 73.7 21.2 91.8 55.1l28 52.6c7 13.1 1.8 29.3-11.5 35.9c-12.3 6.2-27.3 1.8-34.3-10l-24.4-40.7 0 35.1c0 17.7-14.3 32-32 32h-48c-17.7 0-32-14.3-32-32V444.9L64.9 485.6c-7.1 11.8-22 16.2-34.3 10c-13.2-6.6-18.4-22.9-11.5-35.9l28-52.6c18.1-33.9 53.4-55.1 91.8-55.1zM320 208a24 24 0 1 0 0-48 24 24 0 1 0 0 48zm0-64a40 40 0 1 1 0 80 40 40 0 1 1 0-80zm-5.1 112c-32.5 0-62.4 17.9-77.6 46.6l0 .1 0 0-20 36.6c-2.1 3.9-7 5.3-10.9 3.2s-5.3-7-3.2-10.9l20-36.5c18.1-33.9 53.3-55 91.7-55h12.8c38.4 0 73.7 21.2 91.7 55l20 36.5c2.1 3.9 .7 8.7-3.2 10.9s-8.7 .7-10.9-3.2l-20-36.6 0-.1 0 0c-15.3-28.7-45.1-46.6-77.6-46.6H314.9zm-39.4 40.3c3.4 1 5.8 4.1 5.8 7.7v88c0 4.4-3.6 8-8 8s-8-3.6-8-8V331.6l-16.5 26.1c-2.4 3.7-7.3 4.8-11 2.5s-4.8-7.3-2.5-11l31.3-49.5c1.9-3 5.6-4.4 9-3.4zm91.5 0c3.4-1 7.1 .4 9 3.4l31.3 49.5c2.4 3.7 1.2 8.7-2.5 11s-8.7 1.3-11-2.5l-16.5-26.1 0 60.4c0 4.4-3.6 8-8 8s-8-3.6-8-8l0-88c0-3.6 2.4-6.7 5.8-7.7z"/></svg>

<svg xmlns="http://www.w3.org/2000/svg" viewBox="0 0 640 512"><!--! Font Awesome Pro 6.3.0 by @fontawesome - https://fontawesome.com License - https://fontawesome.com/license (Commercial License) Copyright 2023 Fonticons, Inc. --><path d="M136 8C136 3.582 139.6 .0003 144 .0003C148.4 .0003 152 3.582 152 8V164.7L202.3 114.3C205.5 111.2 210.5 111.2 213.7 114.3C216.8 117.5 216.8 122.5 213.7 125.7L149.7 189.7C146.5 192.8 141.5 192.8 138.3 189.7L74.34 125.7C71.22 122.5 71.22 117.5 74.34 114.3C77.47 111.2 82.53 111.2 85.66 114.3L136 164.7L136 8zM437.7 114.3L488 164.7V8C488 3.582 491.6 0 496 0C500.4 0 504 3.582 504 8V164.7L554.3 114.3C557.5 111.2 562.5 111.2 565.7 114.3C568.8 117.5 568.8 122.5 565.7 125.7L501.7 189.7C498.5 192.8 493.5 192.8 490.3 189.7L426.3 125.7C423.2 122.5 423.2 117.5 426.3 114.3C429.5 111.2 434.5 111.2 437.7 114.3L437.7 114.3zM456 296C456 273.9 473.9 256 496 256C518.1 256 536 273.9 536 296C536 318.1 518.1 336 496 336C473.9 336 456 318.1 456 296zM496 320C509.3 320 520 309.3 520 296C520 282.7 509.3 272 496 272C482.7 272 472 282.7 472 296C472 309.3 482.7 320 496 320zM399.1 407.1C417.2 373.2 452.5 352 490.9 352H503.7C542.1 352 577.4 373.2 595.5 407.1L623.5 459.6C630.5 472.7 625.3 488.9 612.1 495.6C599.8 501.7 584.8 497.4 577.7 485.6L553.3 444.9L553.3 480C553.3 497.7 538.1 512 521.3 512H473.3C455.6 512 441.3 497.7 441.3 480V444.9L416.9 485.6C409.8 497.4 394.9 501.7 382.6 495.6C369.3 488.9 364.1 472.7 371.1 459.6L399.1 407.1zM490.9 368C458.4 368 428.6 385.9 413.3 414.6L385.2 467.2C382.5 472.3 384.5 478.7 389.7 481.3C394.5 483.7 400.4 481.1 403.2 477.3L442.5 411.9C444.3 408.8 447.1 407.3 451.4 408.3C454.9 409.3 457.3 412.4 457.3 416V480C457.3 488.8 464.5 496 473.3 496H521.3C530.1 496 537.3 488.8 537.3 480L537.3 416C537.3 412.4 539.7 409.3 543.2 408.3C546.6 407.3 550.3 408.8 552.2 411.9L591.4 477.3C594.2 481.1 600.1 483.7 604.9 481.3C610.1 478.7 612.1 472.3 609.4 467.2L581.4 414.6C566.1 385.9 536.2 368 503.7 368H490.9zM184 296C184 318.1 166.1 336 144 336C121.9 336 104 318.1 104 296C104 273.9 121.9 256 144 256C166.1 256 184 273.9 184 296zM144 272C130.7 272 120 282.7 120 296C120 309.3 130.7 320 144 320C157.3 320 168 309.3 168 296C168 282.7 157.3 272 144 272zM151.7 352C190.1 352 225.4 373.2 243.5 407.1L271.5 459.6C278.5 472.7 273.3 488.9 260.1 495.6C247.8 501.7 232.8 497.4 225.7 485.6L201.3 444.9L201.3 480C201.3 497.7 186.1 512 169.3 512H121.3C103.6 512 89.31 497.7 89.31 480V444.9L64.9 485.6C57.82 497.4 42.86 501.7 30.56 495.6C17.31 488.9 12.13 472.7 19.1 459.6L47.14 407.1C65.22 373.2 100.5 352 138.9 352H151.7zM33.22 467.2C30.49 472.3 32.52 478.7 37.71 481.3C42.54 483.7 48.4 481.1 51.18 477.3L90.45 411.9C92.3 408.8 95.98 407.3 99.45 408.3C102.9 409.3 105.3 412.4 105.3 416V480C105.3 488.8 112.5 496 121.3 496H169.3C178.1 496 185.3 488.8 185.3 480L185.3 416C185.3 412.4 187.7 409.3 191.2 408.3C194.6 407.3 198.3 408.8 200.2 411.9L239.4 477.3C242.2 481.1 248.1 483.7 252.9 481.3C258.1 478.7 260.1 472.3 257.4 467.2L229.4 414.6C214.1 385.9 184.2 368 151.7 368H138.9C106.4 368 76.56 385.9 61.26 414.6L33.22 467.2zM280 184C280 161.9 297.9 144 320 144C342.1 144 360 161.9 360 184C360 206.1 342.1 224 320 224C297.9 224 280 206.1 280 184zM320 208C333.3 208 344 197.3 344 184C344 170.7 333.3 160 320 160C306.7 160 296 170.7 296 184C296 197.3 306.7 208 320 208zM314.9 256C282.4 256 252.6 273.9 237.3 302.6L237.2 302.7L217.2 339.2C215.1 343.1 210.2 344.5 206.3 342.4C202.4 340.3 201 335.4 203.1 331.6L223.2 295C241.2 261.2 276.5 240 314.9 240H327.7C366.1 240 401.4 261.2 419.5 295L439.5 331.6C441.6 335.4 440.2 340.3 436.3 342.4C432.4 344.5 427.6 343.1 425.4 339.2L405.4 302.6C390.1 273.9 360.2 256 327.7 256H314.9zM275.5 296.3C278.1 297.3 281.3 300.4 281.3 304V392C281.3 396.4 277.7 400 273.3 400C268.9 400 265.3 396.4 265.3 392V331.6L248.8 357.7C246.4 361.5 241.5 362.6 237.8 360.2C234 357.9 232.9 352.9 235.3 349.2L266.5 299.7C268.5 296.7 272.1 295.3 275.5 296.3L275.5 296.3zM367.1 296.3C370.5 295.3 374.2 296.7 376.1 299.7L407.3 349.2C409.7 352.9 408.6 357.9 404.9 360.2C401.1 362.6 396.2 361.5 393.8 357.7L377.3 331.6L377.3 392C377.3 396.4 373.7 400 369.3 400C364.9 400 361.3 396.4 361.3 392L361.3 304C361.3 300.4 363.7 297.3 367.1 296.3H367.1z"/></svg>
